X:6
T:Hauenstein-Marsch  CF (5letras transposed)
M:2/4
L:1/8
K:C transpose=3 %%MIDI gchordon
"C"CD EF | .G2!>!c2 | "G7".B2!>!B2 | "C"{AB}.c2 z2 |: "C"G3G/2F/2 | E3E/2F/2 | G^F/2G/2 AE | "G7"G2.F2 | "Dm/F"d3d/2c/2 | "G7"B3B/2A/2 | 
G^F/2G/2 AD | "C"E>AG2 | G3G/2F/2 | E3E/2F/2 | G^F/2G/2 AE | "Dm/F"G2.F2 | "D7/F#".A!>!c2B/2A/2 | "G".c!>!B2.G | "D7".B!>!A2.^F | "G"GGG2 ::
"G7"G2B>A | G2 F>B, | "C"C2E>A | G4 | "G7"D2B,>D | G4 | "C"e2c>e | G4 | "G7"G2B>A | 
G2F>B, | "C"C2E>A | G4 | "D"A2c>A | "C/G"G2ec | "G7"B2 {cB}AB | "C"cc cz :| [K:F] "F"FF/2F/2 FF/2F/2 | F2z2 | 
|: "F"A2A>A | A2G>F | CF GA | "C7"A>BG2 | B2A>G | GF ED | .c2d>e | "F"f4 | 
A2A>A | A2G>F | CF GF | "Gm"B2B2 | .Bz A>B | "Dm".F2F>G | "C7"A!>!G2A/2G/2 | "F"FF Fz :| 
% mr04903

